X:129
M:C|
L:1/8
K:C
EFGE FAdf|ecGB cCC||
e/f/|gece gage|fdec Bd de/f/|gece gage|fdec Gc ce/f/|gece gage|
fdec Bddf|egGE FdFD|Bcdf ecc||

